Numix-GalliumOS/64/emblems/emblem-pictures.svg

<?xml version="1.0" encoding="UTF-8" standalone="no"?>
<svg
   xmlns:dc="http://purl.org/dc/elements/1.1/"
   xmlns:cc="http://creativecommons.org/ns#"
   xmlns:rdf="http://www.w3.org/1999/02/22-rdf-syntax-ns#"
   xmlns:svg="http://www.w3.org/2000/svg"
   xmlns="http://www.w3.org/2000/svg"
   xmlns:sodipodi="http://sodipodi.sourceforge.net/DTD/sodipodi-0.dtd"
   xmlns:inkscape="http://www.inkscape.org/namespaces/inkscape"
   width="64"
   height="64"
   viewBox="0 0 64 64"
   id="svg2"
   version="1.1"
   inkscape:version="0.91 r13725"
   sodipodi:docname="emblem-pictures.svg">
  <metadata
     id="metadata12">
    <rdf:RDF>
      <cc:Work
         rdf:about="">
        <dc:format>image/svg+xml</dc:format>
        <dc:type
           rdf:resource="http://purl.org/dc/dcmitype/StillImage" />
      </cc:Work>
    </rdf:RDF>
  </metadata>
  <defs
     id="defs10" />
  <sodipodi:namedview
     pagecolor="#ffffff"
     bordercolor="#666666"
     borderopacity="1"
     objecttolerance="10"
     gridtolerance="10"
     guidetolerance="10"
     inkscape:pageopacity="0"
     inkscape:pageshadow="2"
     inkscape:window-width="1366"
     inkscape:window-height="704"
     id="namedview8"
     showgrid="true"
     inkscape:object-nodes="true"
     inkscape:zoom="15.383789"
     inkscape:cx="20.481255"
     inkscape:cy="32"
     inkscape:window-x="0"
     inkscape:window-y="27"
     inkscape:window-maximized="1"
     inkscape:current-layer="svg2">
    <inkscape:grid
       type="xygrid"
       id="grid4140" />
  </sodipodi:namedview>
  <path
     style="fill:#fff;stroke:#777;stroke-width:.5"
     d="M 25.932953 35.186401 C 25.932953 42.095309 20.446393 47.695712 13.677926 47.695712 C 6.90946 47.695712 1.4229 42.095309 1.4229 35.186401 C 1.4229 28.277492 6.90946 22.677089 13.677926 22.677089 C 20.446393 22.677089 25.932953 28.277492 25.932953 35.186401 Z "
     transform="matrix(2.13305 0 0 2.08969 2.82425 -41.52879)"
     id="path4" />
  <path
     style="fill:#427fec;fill-opacity:0.94100001"
     d="M 18.082031,16 C 16.953125,16.109375 15.980469,17.296875 16,18.5625 L 16,45.5 c 0.01172,1.328125 1.082031,2.519531 2.265625,2.5 l 27.53125,0 C 46.960938,47.980469 47.988281,46.804688 48,45.5 L 48,18.5625 C 48.015625,17.238281 46.980469,16.015625 45.796875,16 Z M 20,20 l 24.003906,0 0,20 L 20,40 Z"
     id="path6"
     inkscape:connector-curvature="0"
     sodipodi:nodetypes="cccccccccccccc" />
</svg>

<svg xmlns="http://www.w3.org/2000/svg" viewBox="0 0 64 64">
 <path d="m 25.933 35.19 c 0 6.909 -5.487 12.509 -12.255 12.509 c -6.768 0 -12.255 -5.6 -12.255 -12.509 c 0 -6.909 5.487 -12.509 12.255 -12.509 c 6.768 0 12.255 5.6 12.255 12.509 Z" transform="matrix(2.13305 0 0 2.08969 2.82425 -41.52879)" style="fill:#fff;stroke:#777;stroke-width:0.5"/>
 <path d="m 18.08 16 c -1.129 0.109 -2.102 1.297 -2.082 2.563 l 0 26.938 c 0.012 1.328 1.082 2.52 2.266 2.5 l 27.531 0 c 1.164 -0.02 2.191 -1.195 2.203 -2.5 l 0 -26.938 c 0.016 -1.324 -1.02 -2.547 -2.203 -2.563 m -25.797 4 l 24 0 0 20 l -24 0" style="fill:#427fec;fill-opacity:0.941"/>
</svg>
